shared/images/iconfont/kb-iconfont-identity-devices-16.svg

<?xml version="1.0" encoding="UTF-8"?>
<svg width="16px" height="16px" viewBox="0 0 16 16" version="1.1" xmlns="http://www.w3.org/2000/svg" xmlns:xlink="http://www.w3.org/1999/xlink">
    <!-- Generator: sketchtool 41.2 (35397) - http://www.bohemiancoding.com/sketch -->
    <title>13A9534A-9CE7-4C30-BB96-FE5D3BAC190C</title>
    <desc>Created with sketchtool.</desc>
    <defs></defs>
    <g id="Icons" stroke="none" stroke-width="1" fill="none" fill-rule="evenodd">
        <g id="Style-guide---Desktop---Icons-2" transform="translate(-340.000000, -1269.000000)">
            <g id="kb-iconfont-identity-devices-16" transform="translate(340.000000, 1269.000000)">
                <rect id="icon-area" fill="#D8D8D8" opacity="0" x="0" y="0" width="16" height="16"></rect>
                <path d="M8.66101708,11.4750558 C8.57111108,11.6034549 8.39221011,11.6339588 8.26235196,11.5430311 L4.80732034,9.12379195 C4.67746219,9.03286429 4.64493878,8.85431941 4.73484478,8.72592034 L9.22219369,2.31732194 C9.31209968,2.18892287 9.49100066,2.15841893 9.6208588,2.24934658 L13.0758904,4.66858577 C13.2057486,4.75951342 13.238272,4.93805831 13.148366,5.06645738 L8.66101708,11.4750558 L8.66101708,11.4750558 Z M14.8803848,3.61714925 L9.99726164,0.197949587 C9.50686845,-0.145427424 8.83425233,-0.0307413957 8.49473349,0.454141763 L1.192149,10.8833132 C0.852630155,11.3681964 0.974908802,12.0394737 1.465302,12.3828508 L6.34842518,15.8020504 C6.83881837,16.1454274 7.51143449,16.0307414 7.85095333,15.5458582 L15.1535378,5.11668675 C15.4930567,4.6318036 15.370778,3.96052626 14.8803848,3.61714925 L14.8803848,3.61714925 L14.8803848,3.61714925 Z M4.91675534,13.0519425 C4.44461658,12.7213474 4.32693347,12.0752983 4.65367203,11.6086673 C4.9805526,11.1418335 5.62789014,11.0314576 6.1000289,11.3620527 C6.57175745,11.6923606 6.68964567,12.3385533 6.3627651,12.8053871 C6.03602654,13.2720182 5.38868899,13.382394 4.91675534,13.0519425 L4.91675534,13.0519425 L4.91675534,13.0519425 Z" id="Icon-devices" fill="#000000"></path>
            </g>
        </g>
    </g>
</svg>

<svg xmlns="http://www.w3.org/2000/svg" width="16" height="16" viewBox="0 0 16 16">
    <path fill="#000" fill-rule="evenodd" d="M8.661 11.475a.286.286 0 0 1-.399.068l-3.455-2.42a.286.286 0 0 1-.072-.397l4.487-6.409a.286.286 0 0 1 .399-.068l3.455 2.42c.13.09.162.27.072.397l-4.487 6.41zm6.22-7.858L9.996.197a1.078 1.078 0 0 0-1.502.257l-7.303 10.43a1.078 1.078 0 0 0 .273 1.499l4.883 3.42c.49.342 1.163.228 1.503-.257l7.303-10.43a1.078 1.078 0 0 0-.274-1.499zm-9.964 9.435a1.037 1.037 0 0 1-.263-1.443 1.037 1.037 0 0 1 1.446-.247c.472.33.59.977.263 1.443a1.037 1.037 0 0 1-1.446.247z"/>
</svg>
